X: 19
T:SI TOUS LES GARS DU MONDE
M:3/4
L:1/8
Q:120
C:trad. Bresse/Jura
R:mazurka
K:C
ed|c2 Bc de|f2 de fd|c2 Bc dB|c2c2:||:ef|g2g2 fe|d2c2 Bc|1 d2 de fd|e2c2
:|2 d2 df ed|c4||
